X: 26577
T: Mick Finn's
R: reel
M: 4/4
K: Dmajor
d2fd Adfd|g2fg edBc|d2fd Adfd|g2fg e3A|
d2fd Adfd|g2fg edBc|dBBA Bcde|1 f2gf edBc:|2 f2gf edAF||

